X:31
T:Henry McDermott Roe
R:carolan
C:Turlough O'Carolan (1670-1738)
D:Tomas O'Canainn
D:Marcas \'O Murch\'u
Z:id:hn-carolan-31
M:3/4
L:1/8
Q:1/4=160
K:G
D2 | G2 GA BA | G2 E2 D2 | GF GA Bc | d2 B2 G2 |
ce dc BA | Bd gd BG | A2 AB cA | B2 G2 E2 |
G2 GA BA | G2 E2 D2 | GF GA Bc | d2 B2 G2 |
ce dc BA | Bd gB Ac | B2 G2 G2 | G4 :|
|: (3def | g2 ga gf | e2 d2 B2 | ed ef ga | b2 g2 e2 |
g2 ga gf | e2 d2 B2 | ed eg fa | g4 (3def |
g2 ga gf | e2 d2 B2 | ed ef gf | ed cB AG |
ce dc BA | Bd gB Ac | B2 G2 G2 | G4 :|

